templates/flag_icons/pg.svg

<?xml version="1.0" encoding="UTF-8" standalone="no"?>
<svg width="23px" height="17px" viewBox="0 0 23 17" version="1.1" xmlns="http://www.w3.org/2000/svg" xmlns:xlink="http://www.w3.org/1999/xlink">
    <!-- Generator: Sketch 3.7.2 (28276) - http://www.bohemiancoding.com/sketch -->
    <title>PG</title>
    <desc>Created with Sketch.</desc>
    <defs>
        <linearGradient x1="50%" y1="0%" x2="50%" y2="100%" id="linearGradient-1">
            <stop stop-color="#FFFFFF" offset="0%"></stop>
            <stop stop-color="#F0F0F0" offset="100%"></stop>
        </linearGradient>
        <rect id="path-2" x="0" y="0" width="21" height="15" rx="1.5"></rect>
        <filter x="-50%" y="-50%" width="200%" height="200%" filterUnits="objectBoundingBox" id="filter-4">
            <feOffset dx="0" dy="0.5" in="SourceAlpha" result="shadowOffsetOuter1"></feOffset>
            <feGaussianBlur stdDeviation="0.5" in="shadowOffsetOuter1" result="shadowBlurOuter1"></feGaussianBlur>
            <feColorMatrix values="0 0 0 0 0   0 0 0 0 0   0 0 0 0 0  0 0 0 0.16 0" type="matrix" in="shadowBlurOuter1"></feColorMatrix>
        </filter>
        <linearGradient x1="50%" y1="0%" x2="50%" y2="100%" id="linearGradient-5">
            <stop stop-color="#262626" offset="0%"></stop>
            <stop stop-color="#0C0C0C" offset="100%"></stop>
        </linearGradient>
        <linearGradient x1="50%" y1="0%" x2="50%" y2="100%" id="linearGradient-6">
            <stop stop-color="#E8283F" offset="0%"></stop>
            <stop stop-color="#CC162C" offset="100%"></stop>
        </linearGradient>
        <polygon id="path-7" points="5 12.5 4.29289322 12.7071068 4.5 12 4.29289322 11.2928932 5 11.5 5.70710678 11.2928932 5.5 12 5.70710678 12.7071068"></polygon>
        <filter x="-50%" y="-50%" width="200%" height="200%" filterUnits="objectBoundingBox" id="filter-8">
            <feOffset dx="0" dy="0.5" in="SourceAlpha" result="shadowOffsetOuter1"></feOffset>
            <feColorMatrix values="0 0 0 0 0   0 0 0 0 0   0 0 0 0 0  0 0 0 0.06 0" type="matrix" in="shadowOffsetOuter1"></feColorMatrix>
        </filter>
        <polygon id="path-9" points="5 6.5 4.29289322 6.70710678 4.5 6 4.29289322 5.29289322 5 5.5 5.70710678 5.29289322 5.5 6 5.70710678 6.70710678"></polygon>
        <filter x="-50%" y="-50%" width="200%" height="200%" filterUnits="objectBoundingBox" id="filter-10">
            <feOffset dx="0" dy="0.5" in="SourceAlpha" result="shadowOffsetOuter1"></feOffset>
            <feColorMatrix values="0 0 0 0 0   0 0 0 0 0   0 0 0 0 0  0 0 0 0.06 0" type="matrix" in="shadowOffsetOuter1"></feColorMatrix>
        </filter>
        <polygon id="path-11" points="2.5 9 1.79289322 9.20710678 2 8.5 1.79289322 7.79289322 2.5 8 3.20710678 7.79289322 3 8.5 3.20710678 9.20710678"></polygon>
        <filter x="-50%" y="-50%" width="200%" height="200%" filterUnits="objectBoundingBox" id="filter-12">
            <feOffset dx="0" dy="0.5" in="SourceAlpha" result="shadowOffsetOuter1"></feOffset>
            <feColorMatrix values="0 0 0 0 0   0 0 0 0 0   0 0 0 0 0  0 0 0 0.06 0" type="matrix" in="shadowOffsetOuter1"></feColorMatrix>
        </filter>
        <polygon id="path-13" points="7 8.5 6.29289322 8.70710678 6.5 8 6.29289322 7.29289322 7 7.5 7.70710678 7.29289322 7.5 8 7.70710678 8.70710678"></polygon>
        <filter x="-50%" y="-50%" width="200%" height="200%" filterUnits="objectBoundingBox" id="filter-14">
            <feOffset dx="0" dy="0.5" in="SourceAlpha" result="shadowOffsetOuter1"></feOffset>
            <feColorMatrix values="0 0 0 0 0   0 0 0 0 0   0 0 0 0 0  0 0 0 0.06 0" type="matrix" in="shadowOffsetOuter1"></feColorMatrix>
        </filter>
        <linearGradient x1="50%" y1="0%" x2="50%" y2="100%" id="linearGradient-15">
            <stop stop-color="#FFD84E" offset="0%"></stop>
            <stop stop-color="#FCD036" offset="100%"></stop>
        </linearGradient>
        <path d="M14.145932,6.94917745 C14.0262171,6.87734852 13.929169,6.70814871 13.9291691,6.57278248 L13.9291691,5.65124336 C13.9291691,5.51519509 13.8312859,5.4375339 13.6831664,5.48690708 L13.1145117,5.67645866 C12.9786481,5.72174651 12.7706257,5.72583183 12.6225062,5.67645866 L12.0538515,5.48690708 C11.9179879,5.44161923 11.9028916,5.34788048 12.0246117,5.27484842 L13.3588528,4.47430376 C13.4785676,4.40247484 13.542988,4.24636281 13.4936148,4.09824328 L13.3040632,3.52958856 C13.2587754,3.393725 13.3199455,3.31621356 13.468065,3.36558674 L14.0367198,3.55513831 C14.1725833,3.60042616 14.3397482,3.54209639 14.4127803,3.42037629 L15.2133249,2.0861352 C15.2851538,1.96642034 15.3760104,1.96725546 15.4253836,2.11537499 L15.6149352,2.68402971 C15.660223,2.81989327 15.6643083,3.02791563 15.6149352,3.17603516 L15.4253836,3.74468989 C15.3800957,3.88055344 15.4543536,3.99069261 15.5897199,3.9906926 L16.511259,3.99069256 C16.6473072,3.99069255 16.8146219,4.08573538 16.8876539,4.20745548 L17.6881986,5.54169663 C17.7600276,5.66141149 17.7022683,5.78165719 17.572456,5.80761965 L16.2962899,6.06285287 C16.160538,6.09000324 16.0272918,6.22800109 16.0013294,6.35781339 L15.7460962,7.63397958 C15.7189459,7.76973141 15.6018933,7.8227543 15.4801732,7.74972223 L14.145932,6.94917745 L14.145932,6.94917745 Z" id="path-16"></path>
        <filter x="-50%" y="-50%" width="200%" height="200%" filterUnits="objectBoundingBox" id="filter-17">
            <feOffset dx="0" dy="0.5" in="SourceAlpha" result="shadowOffsetOuter1"></feOffset>
            <feColorMatrix values="0 0 0 0 0   0 0 0 0 0   0 0 0 0 0  0 0 0 0.06 0" type="matrix" in="shadowOffsetOuter1"></feColorMatrix>
        </filter>
    </defs>
    <g id="Flag-Kit" stroke="none" stroke-width="1" fill="none" fill-rule="evenodd">
        <g id="PG">
            <g id="BE-Copy-9" transform="translate(1.000000, 1.000000)">
                <mask id="mask-3" fill="white">
                    <use xlink:href="#path-2"></use>
                </mask>
                <g id="Mask">
                    <use fill="black" fill-opacity="1" filter="url(#filter-4)" xlink:href="#path-2"></use>
                    <use fill="url(#linearGradient-1)" fill-rule="evenodd" xlink:href="#path-2"></use>
                </g>
                <rect id="Mask-Copy" fill="url(#linearGradient-5)" mask="url(#mask-3)" x="0" y="0" width="21" height="15"></rect>
                <polygon id="Mask" fill="url(#linearGradient-6)" mask="url(#mask-3)" points="0 0 21 0 21 15"></polygon>
                <g id="Star-2" mask="url(#mask-3)">
                    <use fill="black" fill-opacity="1" filter="url(#filter-8)" xlink:href="#path-7"></use>
                    <use fill="url(#linearGradient-1)" fill-rule="evenodd" xlink:href="#path-7"></use>
                </g>
                <g id="Star-2" mask="url(#mask-3)">
                    <use fill="black" fill-opacity="1" filter="url(#filter-10)" xlink:href="#path-9"></use>
                    <use fill="url(#linearGradient-1)" fill-rule="evenodd" xlink:href="#path-9"></use>
                </g>
                <g id="Star-2" mask="url(#mask-3)">
                    <use fill="black" fill-opacity="1" filter="url(#filter-12)" xlink:href="#path-11"></use>
                    <use fill="url(#linearGradient-1)" fill-rule="evenodd" xlink:href="#path-11"></use>
                </g>
                <g id="Star-2" mask="url(#mask-3)">
                    <use fill="black" fill-opacity="1" filter="url(#filter-14)" xlink:href="#path-13"></use>
                    <use fill="url(#linearGradient-1)" fill-rule="evenodd" xlink:href="#path-13"></use>
                </g>
                <g id="Rectangle-419" mask="url(#mask-3)">
                    <use fill="black" fill-opacity="1" filter="url(#filter-17)" xlink:href="#path-16"></use>
                    <use fill="url(#linearGradient-15)" fill-rule="evenodd" xlink:href="#path-16"></use>
                </g>
                <rect id="Depth" mask="url(#mask-3)" x="0" y="0" width="21" height="15" rx="1.5"></rect>
            </g>
        </g>
    </g>
</svg>

<svg width="23" height="17" viewBox="0 0 23 17" xmlns="http://www.w3.org/2000/svg" xmlns:xlink="http://www.w3.org/1999/xlink"><title>PG</title><defs><linearGradient x1="50%" y1="0%" x2="50%" y2="100%" id="c"><stop stop-color="#FFF" offset="0%"/><stop stop-color="#F0F0F0" offset="100%"/></linearGradient><rect id="a" width="21" height="15" rx="1.5"/><filter x="-50%" y="-50%" width="200%" height="200%" filterUnits="objectBoundingBox" id="b"><feOffset dy=".5" in="SourceAlpha" result="shadowOffsetOuter1"/><feGaussianBlur stdDeviation=".5" in="shadowOffsetOuter1" result="shadowBlurOuter1"/><feColorMatrix values="0 0 0 0 0 0 0 0 0 0 0 0 0 0 0 0 0 0 0.16 0" in="shadowBlurOuter1"/></filter><linearGradient x1="50%" y1="0%" x2="50%" y2="100%" id="d"><stop stop-color="#262626" offset="0%"/><stop stop-color="#0C0C0C" offset="100%"/></linearGradient><linearGradient x1="50%" y1="0%" x2="50%" y2="100%" id="f"><stop stop-color="#E8283F" offset="0%"/><stop stop-color="#CC162C" offset="100%"/></linearGradient><path id="h" d="M5 12.5l-.7.2.2-.7-.2-.7.7.2.7-.2-.2.7.2.7z"/><filter x="-50%" y="-50%" width="200%" height="200%" filterUnits="objectBoundingBox" id="g"><feOffset dy=".5" in="SourceAlpha" result="shadowOffsetOuter1"/><feColorMatrix values="0 0 0 0 0 0 0 0 0 0 0 0 0 0 0 0 0 0 0.06 0" in="shadowOffsetOuter1"/></filter><path id="j" d="M5 6.5l-.7.2.2-.7-.2-.7.7.2.7-.2-.2.7.2.7z"/><filter x="-50%" y="-50%" width="200%" height="200%" filterUnits="objectBoundingBox" id="i"><feOffset dy=".5" in="SourceAlpha" result="shadowOffsetOuter1"/><feColorMatrix values="0 0 0 0 0 0 0 0 0 0 0 0 0 0 0 0 0 0 0.06 0" in="shadowOffsetOuter1"/></filter><path id="l" d="M2.5 9l-.7.2.2-.7-.2-.7.7.2.7-.2-.2.7.2.7z"/><filter x="-50%" y="-50%" width="200%" height="200%" filterUnits="objectBoundingBox" id="k"><feOffset dy=".5" in="SourceAlpha" result="shadowOffsetOuter1"/><feColorMatrix values="0 0 0 0 0 0 0 0 0 0 0 0 0 0 0 0 0 0 0.06 0" in="shadowOffsetOuter1"/></filter><path id="n" d="M7 8.5l-.7.2.2-.7-.2-.7.7.2.7-.2-.2.7.2.7z"/><filter x="-50%" y="-50%" width="200%" height="200%" filterUnits="objectBoundingBox" id="m"><feOffset dy=".5" in="SourceAlpha" result="shadowOffsetOuter1"/><feColorMatrix values="0 0 0 0 0 0 0 0 0 0 0 0 0 0 0 0 0 0 0.06 0" in="shadowOffsetOuter1"/></filter><linearGradient x1="50%" y1="0%" x2="50%" y2="100%" id="q"><stop stop-color="#FFD84E" offset="0%"/><stop stop-color="#FCD036" offset="100%"/></linearGradient><path d="M14.15 6.95a.49.49 0 0 1-.22-.38v-.92c0-.13-.1-.21-.25-.16l-.57.19a.87.87 0 0 1-.49 0l-.57-.2c-.13-.04-.15-.13-.03-.2l1.34-.8a.32.32 0 0 0 .13-.38l-.19-.57c-.04-.14.02-.21.17-.16l.57.19c.13.04.3-.02.37-.14l.8-1.33c.08-.12.17-.12.22.03l.18.56c.05.14.05.35 0 .5l-.18.56c-.05.14.02.25.16.25h.92c.14 0 .3.1.38.22l.8 1.33c.07.12.01.24-.12.27l-1.27.25a.41.41 0 0 0-.3.3l-.25 1.27c-.03.14-.15.2-.27.12l-1.33-.8z" id="p"/><filter x="-50%" y="-50%" width="200%" height="200%" filterUnits="objectBoundingBox" id="o"><feOffset dy=".5" in="SourceAlpha" result="shadowOffsetOuter1"/><feColorMatrix values="0 0 0 0 0 0 0 0 0 0 0 0 0 0 0 0 0 0 0.06 0" in="shadowOffsetOuter1"/></filter></defs><g transform="translate(1 1)" fill="none" fill-rule="evenodd"><mask id="e" fill="#fff"><use xlink:href="#a"/></mask><use fill="#000" filter="url(#b)" xlink:href="#a"/><use fill="url(#c)" xlink:href="#a"/><path fill="url(#d)" mask="url(#e)" d="M0 0h21v15H0z"/><path fill="url(#f)" mask="url(#e)" d="M0 0h21v15z"/><g mask="url(#e)"><use fill="#000" filter="url(#g)" xlink:href="#h"/><use fill="url(#c)" xlink:href="#h"/></g><g mask="url(#e)"><use fill="#000" filter="url(#i)" xlink:href="#j"/><use fill="url(#c)" xlink:href="#j"/></g><g mask="url(#e)"><use fill="#000" filter="url(#k)" xlink:href="#l"/><use fill="url(#c)" xlink:href="#l"/></g><g mask="url(#e)"><use fill="#000" filter="url(#m)" xlink:href="#n"/><use fill="url(#c)" xlink:href="#n"/></g><g mask="url(#e)"><use fill="#000" filter="url(#o)" xlink:href="#p"/><use fill="url(#q)" xlink:href="#p"/></g><rect mask="url(#e)" width="21" height="15" rx="1.5"/></g></svg>
